!!!!SEGMENT: T202_Sch-w29p23m333-341.krn
!!!COM: Schoenberg [Schönberg], Arnold (Franz Walter)
!!!OTL: String Quartet No. 3, op. 30
!!!OMV: I: Moderato
!!!OMD:
!!!AGN: Instrumental; Chamber
!!!AGN-sub: Chamber
!!!CNT: Austrian
!!!ODT: 1927
!!!OPR: String Quartet No. 3, op. 30
!!!filename: T202_Sch-w29p23m333-341.krn
**kern	**dynam	**kern	**dynam	**kern	**dynam	**kern	**dynam
*grp:A	*	*grp:A	*	*grp:B	*	*grp:A	*
*part4	*	*part3	*	*part2	*	*part1	*
*staff4	*	*staff3	*	*staff2	*	*staff1	*
*ICstr	*	*ICstr	*	*ICstr	*	*ICstr	*
*Icello	*	*Iviola	*	*Ivioln	*	*Ivioln	*
*I"Violoncello	*	*I"Viola	*	*I"Violin II	*	*I"Violin I	*
*I'vc	*	*I'vla	*	*I'vn	*	*I'vn	*
*clefF4	*	*clefC3	*	*clefG2	*	*clefG2	*
*k[]	*	*k[]	*	*k[]	*	*k[]	*
*C:	*	*C:	*	*C:	*	*C:	*
!!LO:TX:omd:tempo:a:t=[Tempo I (Moderato)]\n[[half]=100]
*M4/4	*	*M4/4	*	*M4/4	*	*M4/4	*
*met(c|)	*	*met(c|)	*	*met(c|)	*	*met(c|)	*
=1	=1	=1	=1	=1	=1	=1	=1
*	*	*	*	*^	*	*	*
!	!LO:DY:t=[ %s ]	!	!LO:DY:t=[ %s ]	!	!	!LO:DY:t=[ %s ]	!	!LO:DY:t=[ %s ]
8r	ff	8C#XL	ff	4r	4ryy	ff	8fffL]	f
8BnL	.	8FnJ 8en	.	.	.	.	8ff#X 8ccc	.
8B	.	4.F 4.e	.	(4dn	4.an	.	8ff# 8ccc	.
8AA-XJ 8E-X\	.	.	.	.	.	.	8gggnJ	.
8AA- 8E-	.	.	.	8bb-X)	.	.	4.ggg	.
8r	.	8CnL	.	8ryy	8r	.	.	.
8r	.	8C	.	4r	4ryy	.	.	.
8DDnL	.	8AnJ 8g#X/	.	.	.	.	8ff#XL 8ccc#X	.
=2	=2	=2	=2	=2	=2	=2	=2	=2
*	*	*grp:B	*	*	*	*	*	*
8DD	.	[2An [2g#X	.	4ryy	4r	.	8ff#X 8ccc#X	.
8BB-XJ 8Fn/	.	.	.	.	.	.	8gggnJ	.
4.BB- 4.F/	.	.	.	4.een	(4bbn	.	4.ggg	.
.	.	8A] 8g#]	.	.	8d#X)	.	.	.
8r	.	8r	.	8r	8ryy	.	8eeenL	.
*clefC4	*	*	*	*	*	*	*	*
([4an	.	([4ccn	.	4ryy	([4ggn	.	8eee	.
.	.	.	.	.	.	.	8ee-XJ	.
*	*	*	*	*v	*v	*	*	*
=3	=3	=3	=3	=3	=3	=3	=3
4a]	.	4cc]	.	4gg]	.	8fffnL	.
.	.	.	.	.	.	8ff#X	.
2dn)	.	2cc#X)	.	2aa-X)	.	8ff#J	.
.	.	.	.	.	.	8bbbnL	.
.	.	.	.	.	.	8bbb	.
.	.	.	.	.	.	8bb-XJ	.
*clefF4	*	*clefG2	*	*	*	*	*
8EE-XL	.	8r	.	8r	.	8r	.
*	*	*	*	*	*	*grp:B	*
8En/	.	[8gg	.	[8bb-X	.	[8cccc	.
=4	=4	=4	=4	=4	=4	=4	=4
8EnJ/	.	4.gg]	.	4.bb-]	.	4.cccc]	.
8DL	.	.	.	.	.	.	.
8D	.	.	.	.	.	.	.
8c#XJ	.	[8ff#X	.	[8bbn	.	[8fffn	.
8G#XL	.	4.ff#]	.	4.bb]	.	4.fff]	.
*clefC4	*	*	*	*	*	*	*
8a	.	.	.	.	.	.	.
8aJ	.	.	.	.	.	.	.
*	*	*	*	*	*	*grp:A	*
8r	.	8r	.	8r	.	8ccccL	.
=5	=5	=5	=5	=5	=5	=5	=5
*grp:B	*	*	*	*	*	*	*
2fn	.	2aa-X	.	2eee-X	.	8cccc	.
.	.	.	.	.	.	8bbnJ	.
.	.	.	.	.	.	8ccc#XL	.
.	.	.	.	.	.	8ddn	.
2b-X	.	2aan	.	[2eeen	.	8ddJ	.
.	.	.	.	.	.	8GL	.
.	.	.	.	.	.	8G	.
.	.	.	.	.	.	8f#XJ	.
*clefF4	*	*	*	*	*	*	*
=6	=6	=6	=6	=6	=6	=6	=6
*	*	*grp:A	*	*	*	*	*
2.C	.	8gnL	.	4.eee]	.	(1bn	.
.	.	8aa-XJ	.	.	.	.	.
.	.	(2.aa-	.	.	.	.	.
*grp:A	*	*	*	*grp:A	*	*	*
.	.	.	.	8ff#XL	.	.	.
.	.	.	.	8ff#	.	.	.
.	.	.	.	8fffnJ	.	.	.
8CL	.	.	.	(4ddd	.	.	.
8DD-XJ	.	.	.	.	.	.	.
=7	=7	=7	=7	=7	=7	=7	=7
4DD-X	.	4aan)	.	4eee-X)	.	4bbb-X)	.
!!LO:TX:a:B:t=Pesante
4r	.	4r	.	4r	.	4r	.
8r	.	2r	.	2r	.	4r	.
8EEnL 8GGn	.	.	.	.	.	.	.
8EE 8GG	.	.	.	.	.	8r	.
8D#XJ 8An	.	.	.	.	.	8bn 8ffn	.
=8	=8	=8	=8	=8	=8	=8	=8
*^	*	*	*	*	*	*	*
2rG	1CC	.	8r	.	8r	.	8bL 8ff	.
.	.	.	8ddnL	.	8aa-XL 8ddd-X	.	8bb-XJ 8ggg-X	.
.	.	.	8ddJ	.	8aa-J 8ddd-	.	4r	.
*	*	*	*clefC3	*	*	*	*	*
.	.	.	8en 8dd#X	.	8r	.	.	.
8rE	.	.	8eL 8dd#	.	4r	.	2r	.
8DnL	.	.	8B-XJ 8gn	.	.	.	.	.
8D	.	.	4B- 4g	.	8gg#XL	.	.	.
8D-XJ	.	.	.	.	8ff#XJ 8aan	.	.	.
*v	*v	*	*	*	*	*	*	*
=9	=9	=9	=9	=9	=9	=9	=9
4CC 4D-X	.	4B-X 4g	.	4ff#X 4aa	.	4bbn 4fffn	.
4r	.	4r	.	4r	.	4r	.
2r	.	2r	.	2r	.	2r	.
==	==	==	==	==	==	==	==
*-	*-	*-	*-	*-	*-	*-	*-
!!!system-decoration: [(s1,s2,s3,s4)]
!!!EED:Jason Lee
!!!EEV:2021/10/15
!!!EED2: Rafael Laurindo
!!!EEV2: 2022/03/27
!!!EED3: Bryan Jacob Bell
!!!Suter_Work_ID: Sch-29
!!!Suter_Example_Number: 202
!!!Suter_Example_ID: Sch-29/23/333-341
!!!Premiere_Location: Vienna,Austria
!!!Other_Tsigs: none
!!!Full_Unit_Duration: 8:08
!!!First_Publication_Year: 1927
!!!First_Public_Performance_Year: 1927
!!!Example_Total_Measures: 9
!!!Example_Timestamp_Duration: 13
!!!Example_Start_Tsig_Type: simple duple
!!!Example_Start_Tsig_Mean_Beat_Rate: 100
!!!Example_Start_Tsig_Beat_Rate: 100
!!!Example_Start_Tsig_Beat: half
!!!Example_Start_Tsig: 2/2
!!!Example_Start_Timestamp: 7:55
!!!Example_Start_Tempo_Expression: [Tempo I (Moderato)]
!!!Example_Start_Notated_Beat_Rate: [100]
!!!Example_Start_Notated_Beat: [half]
!!!Example_Start_Measure: 333
!!!Example_Metadata_Validated: Y
!!!Example_End_Timestamp: 8:08
!!!Example_End_Measure: 341
!!!Example_Dataset: T
!!!Editorial_Comments: Example Start Notated Beat and Example Start Notated Beat Rate [half=100] based on most recent notated beat rate (SWFU, m. 1). Example Start Tempo Expression [Tempo I (Moderato)] based on most recent notated tempo expressions (SWFU, m. 324 and m. 1).
!!!Death_Place: Los Angeles,United States
!!!Death_Date: 13-Jul-1951
!!!Changing_Tsig: no
!!!Birth_Place: Vienna,Austria
!!!Birth_Date: 13-Sep-1874
!!!Audio_Example_Quarter_Note_Tempo:
!!!Audio_Example_Duration:
!!!EEV3: 2023/05/31
